X:1
T:E Minor Jig  "CYMRU"
M:6/8
L:1/8
Q:80
C:Arr. C. Layer
S:Jig
K:HP
|: e | \
Be{A}e{g}efg | \
{g}f/2g/2afg2{a}e | \
Be{A}e{g}efg |
{g}fgedB{G}A | | \
Be{A}e{g}efg | \
{g}f/2g/2afg2{a}f |
{g}ede{g}e2{Gdc}d | \
{g}ef{g}edB{G}A :| | \
{g}dG{g}B{g}BdB |
{GdG}Bgf{g}e2{Gdc}d | \
{g}BGB{Gdc}d2{g}B | \
{g}efe{g}dB{G}A| |
{g}dG{g}B{g}BdB | \
{GdG}Bgf{g}efg | \
a{g}a{g}ag2{a}f |
{g}ef{g}e{g}dB{G}A :|
